Origami/64x64/apps/kanagram.svg

<svg width="64" height="64" version="1" xmlns="http://www.w3.org/2000/svg">
 <path d="m4.0000004 50.250068v1.999971c0 1.523979 1.2495821 2.749961 2.80076 2.749961h50.39928c1.549977 0 2.79996-1.225982 2.79996-2.749961v-1.999971c0 1.523978-1.249983 2.749961-2.79996 2.749961h-50.39928c-1.5503779 0-2.79996-1.225983-2.79996-2.749961z" style="opacity:.2"/>
 <rect transform="scale(-1,1)" x="-60" y="10" width="55.999" height="43.999" rx="2.8" ry="2.75" style="fill:#6b664c"/>
 <g transform="matrix(1.9999714,0,0,1.9999714,5.760572e-5,8.008e-4)" style="fill:#ffffff;opacity:.8">
  <path d="m7 11h2.500107v3.6504l3.933893-3.65h3.059l-4.921 4.735 5.428 5.265h-3.299l-4.200893-3.938v3.938h-2.500107v-10z"/>
  <path d="m26 20.096c-0.672 0.301333-1.37 0.527333-2.094 0.678-0.723333 0.150667-1.470333 0.226-2.241 0.226-1.741333 0-3.120667-0.447667-4.138-1.343-1.018-0.899333-1.527-2.117333-1.527-3.654 0-1.553333 0.518333-2.775667 1.555-3.667 1.036-0.890667 2.455-1.336 4.257-1.336 0.6956 0 1.360867 0.06025 1.9958 0.18076 0.639587 0.120507 1.127656 0.299117 1.692536 0.53583v1.9948c-0.583567-0.305573-1.050636-0.383916-1.629536-0.534549-0.574227-0.150633-1.150793-0.22595-1.7297-0.22595-1.073733 0-2.152583 0.2776-2.736183 0.8328-0.5789 0.550893-0.86835 1.190899-0.86835 2.219539 0 1.02 0.280114 1.607535 0.84034 2.162735 0.560227 0.5552 1.60641 0.8328 2.638183 0.8328 0.280113 0 0.539217-0.01507 0.77731-0.0452 0.242767-0.03443 0.5165-0.08608 0.707907-0.15494v-1.798782h-1.500021v-1.500022h3.999374v4.596269z"/>
 </g>
 <path d="m6.8007812 10c-1.5511778 0-2.8007812 1.226422-2.8007812 2.75v1.001953c0-1.523578 1.2496034-2.75 2.8007812-2.75h50.398438c1.549977 0 2.800781 1.226422 2.800781 2.75v-1.001953c0-1.523578-1.250804-2.75-2.800781-2.75h-50.398438z" style="fill:#ffffff;opacity:.1"/>
</svg>

<svg xmlns="http://www.w3.org/2000/svg" width="64" height="64" version="1">
 <path style="opacity:0.2" d="m 4.0000004,50.250068 0,1.999971 C 4.0000004,53.774018 5.2495825,55 6.8007604,55 L 57.20004,55 C 58.750017,55 60,53.774018 60,52.250039 l 0,-1.999971 c 0,1.523978 -1.249983,2.749961 -2.79996,2.749961 l -50.3992796,0 c -1.5503779,0 -2.79996,-1.225983 -2.79996,-2.749961 z"/>
 <rect style="fill:#6b664c" width="55.999" height="43.999" x="-60" y="10" rx="2.8" ry="2.75" transform="scale(-1,1)"/>
 <g style="opacity:0.8;fill:#ffffff" transform="matrix(1.9999714,0,0,1.9999714,5.760572e-5,8.008e-4)">
  <path d="m 7,11 2.500107,0 0,3.6504 3.933893,-3.65 3.059,0 -4.921,4.735 5.428,5.265 -3.299,0 -4.200893,-3.938 0,3.938 -2.500107,0 0,-10 z"/>
  <path d="m 26,20.096 c -0.672,0.301333 -1.37,0.527333 -2.094,0.678 C 23.182667,20.924667 22.435667,21 21.665,21 19.923667,21 18.544333,20.552333 17.527,19.657 16.509,18.757667 16,17.539667 16,16.003 16,14.449667 16.518333,13.227333 17.555,12.336 18.591,11.445333 20.01,11 21.812,11 c 0.6956,0 1.360867,0.06025 1.9958,0.18076 0.639587,0.120507 1.127656,0.299117 1.692536,0.53583 l 0,1.9948 C 24.916769,13.405817 24.4497,13.327474 23.8708,13.176841 c -0.574227,-0.150633 -1.150793,-0.22595 -1.7297,-0.22595 -1.073733,0 -2.152583,0.2776 -2.736183,0.8328 -0.5789,0.550893 -0.86835,1.190899 -0.86835,2.219539 0,1.02 0.280114,1.607535 0.84034,2.162735 0.560227,0.5552 1.60641,0.8328 2.638183,0.8328 0.280113,0 0.539217,-0.01507 0.77731,-0.0452 0.242767,-0.03443 0.5165,-0.08608 0.707907,-0.15494 l 0,-1.798782 -1.500021,0 0,-1.500022 3.999374,0 0,4.596269 z"/>
 </g>
 <path style="opacity:0.1;fill:#ffffff" d="M 6.8007812 10 C 5.2496034 10 4 11.226422 4 12.75 L 4 13.751953 C 4 12.228375 5.2496034 11.001953 6.8007812 11.001953 L 57.199219 11.001953 C 58.749196 11.001953 60 12.228375 60 13.751953 L 60 12.75 C 60 11.226422 58.749196 10 57.199219 10 L 6.8007812 10 z"/>
</svg>
